!!!COM: Beethoven, Ludwig van
!!!CDT: 1770///-1827///
!!!OTL: Piano Sonata no. 13 in E-flat major
!!!OTP: quasi una fantasia
!!!OPS: 27
!!!ONM: 1
!!!OMV: 4
!!!OMD: Finale: Allegro vivace
**kern	**kern	**dynam
*staff2	*staff1	*staff1/2
*Ipiano	*Ipiano	*Ipiano
*clefF4	*clefG2	*
*k[b-e-a-]	*k[b-e-a-]	*
*E-:	*E-:	*
*M2/4	*M2/4	*
*MM144	*MM144	*
*^	*	*
8BB-'	8r	8ryy	p
=1	=1	=1	=1
(4E-	16r	2ryy	.
.	16EE-LL	.	.
.	16FF	.	.
.	16GGJJ	.	.
4C)	16AA-LL	.	.
.	16GG	.	.
.	16FF	.	.
.	16EE-JJ	.	.
=2	=2	=2	=2
8BB-L	16DDLL<	2ryy	.
.	16CC	.	.
8AA-TJ	16DD	.	.
.	16BBB-JJ	.	.
(<16qGGLL	.	.	.
16qAA-JJ	.	.	.
4GG)	16EE-LL	.	.
.	16DD	.	.
.	16EE-	.	.
.	16EEnJJ	.	.
=3	=3	=3	=3
(16AA-LL	16FFLL	2ryy	<
16BB-	16GG	.	.
16C	16AA-	.	.
16DJJ	16BB-JJ	.	.
16E-LL	16CLL	.	.
16F	16D	.	.
16G	16E-	.	.
16AnJJ	16CJJ	.	.
=4	=4	=4	=4
16B-LL	16DLL	4ryy	.
16c	16E-	.	.
16An	16F	.	.
16FJJ	16E-JJ)	.	.
4ryy	16DLL<	8B-'L	.
.	16C	.	.
.	16BB-	8B-' 8b-'J	.
.	16AA-XJJ	.	.
*v	*v	*	*
!!LO:LB:g=original
=5	=5	=5
16GGLL	4e- 4ee-	f
16E-	.	.
16F	.	.
16GJJ	.	.
16A-LL	4c 4cc	.
16G	.	.
16F	.	.
16E-JJ	.	.
=6	=6	=6
16DLL<	8b-L	.
16C	.	.
16D	8a-TJ	.
16BB-JJ	.	.
.	(16qgLL	.
.	16qa-JJ	.
16E-LL	4g)	.
16D	.	.
16E-	.	.
16EnJJ	.	.
=7	=7	=7
(16FLL	(16a-LL	.
16G	16b-	.
16A-	16cc	.
16B-JJ	16ddJJ	.
16cLL	16ee-LL	.
16d	16ff	.
16e-	16gg	.
16fJJ)	16aa-JJ)	.
=8	=8	=8
*	*^	*
4B-z	(16bb-LL	(>16gzLL	.
.	16ccc	16a-	.
.	16aa-	16f	.
.	16ffJJ	16dJJ	.
8E-	8ee-)	8e-)	.
8r	8rff	8re	.
*	*v	*v	*
=9	=9	=9
16DLL	8b-'L<	p
16B-	.	.
16F	8d' 8dd'J	sf
16B-JJ	.	.
16A-LL	4f 4ff	.
16B-	.	.
16A-	.	.
16B-JJ	.	.
!!LO:LB:g=original
=10	=10	=10
16FLL	8d' 8dd'L	.
16B-	.	.
16A-	8f' 8ff'J	.
16B-JJ	.	.
16cLL	[4a- [4aa-	sf
16B-	.	.
16c	.	.
16B-JJ	.	.
=11	=11	=11
16cLL	8a-] (8aa-L]	.
16B-	.	.
16c	8g 8gg)	.
16B-JJ	.	.
16A-LL	8f' 8ff'	.
16B-	.	.
16G	8e-' 8ee-'J	.
16B-JJ	.	.
=12	=12	=12
16FLL	8d' 8dd'L	.
16B-	.	.
16G	8e-' 8ee-'	.
16B-JJ	.	.
16E-LL	8c' 8cc'	.
16B-	.	.
16C	8an'J	.
16B-JJ	.	.
=13	=13	=13
16DLL	8b-'L	.
16B-	.	.
16F	8d' 8dd'J	.
16B-JJ	.	.
16A-LL	4f/ 4ff/	sf
16B-	.	.
16A-	.	.
16B-JJ	.	.
=14	=14	=14
16FLL	8d' 8dd'L	.
16B-	.	.
16A-	8f' 8ff'J	.
16B-JJ	.	.
16cLL	[4a-X [4aa-X	.
16B-	.	.
16c	.	.
16B-JJ	.	.
!!LO:LB:g=original
=15	=15	=15
16cLL	8a-] (8aa-L]	.
16B-	.	.
16c	8g 8gg)	.
16B-JJ	.	.
16A-LL	8f' 8ff'	.
16B-	.	.
16G	8e-' 8ee-'J	.
16B-JJ	.	.
=16	=16	=16
*^	*	*
16A-LL	8BB-L	8c' 8cc'L	.
16B-	.	.	.
16F	8BB-	8d' 8dd'	.
16B-JJ	.	.	.
16GLL	8E-J	8e-' 8ee-'J	.
16B-	.	.	.
16G	8rBB	8r	.
16E-JJ	.	.	.
*v	*v	*	*
=17	=17	=17
16DLL	8b-'L	.
16B-	.	.
16F	8d' 8dd'J	.
16B-JJ	.	.
16A-LL	4f/ 4ff/	sf
16B-	.	.
16A-	.	.
16B-JJ	.	.
=18	=18	=18
16FLL	8d' 8dd'L	.
16B-	.	.
16A-	8f' 8ff'J	.
16B-JJ	.	.
16cLL	[4a- [4aa-	sf
16B-	.	.
16c	.	.
16B-JJ	.	.
=19	=19	=19
16cLL	8a-] (8aa-L]	.
16B-	.	.
16c	8g 8gg)	.
16B-JJ	.	.
16A-LL	8f' 8ff'	.
16B-	.	.
16G	8e-' 8ee-'J	.
16B-JJ	.	.
!!LO:LB:g=original
=20	=20	=20
16FLL	8d' 8dd'L	.
16B-	.	.
16G	8e-' 8ee-'	.
16B-JJ	.	.
16E-LL	8c' 8cc'	.
16B-	.	.
16C	8an'J	.
16B-JJ	.	.
=21	=21	=21
16DLL	8b-'L	.
16B-	.	.
16F	8d' 8dd'J	.
16B-JJ	.	.
16A-LL	4f/ 4ff/	sf
16B-	.	.
16A-	.	.
16B-JJ	.	.
=22	=22	=22
16FLL	8d' 8dd'L	.
16B-	.	.
16A-	8f' 8ff'J	.
16B-JJ	.	.
16cLL	[4a-X [4aa-X	sf
16B-	.	.
16c	.	.
16B-JJ	.	.
=23	=23	=23
16cLL	8a-] (8aa-L]	.
16B-	.	.
16c	8g 8gg)	.
16B-JJ	.	.
16A-LL	8f' 8ff'	.
16B-	.	.
16G	8e-' 8ee-'J	.
16B-JJ	.	.
=24	=24	=24
*^	*	*
16A-LL	8BB-L	8c' 8cc'L	.
16B-	.	.	.
16F	8BB-	8d' 8dd'	.
16B-JJ	.	.	.
8G	8E-J	8e-' 8ee-'J	.
8r	8r	8B-	.
*v	*v	*	*
!!LO:LB:g=original
=25	=25	=25
4EE-\ 4E-\	4G< 4B-< 4e-	f
4AAA-\ 4AA-\	4E-< 4A-< 4c	f
=26	=26	=26
*^	*	*
8D` 8F 8B-L	8BBB-` 8BB-L	4.ryy	.
8F'' 8A-''	8DD` 8BB-	.	.
8E-` 8GJ	8EE-'' 8BB-''J	.	.
8ryy	8A-''	8ee-'' 8ccc''	p
*v	*v	*	*
=27	=27	=27
8B-''L	8dd'' 8bb-''L	.
8d''	8ff'' 8aa-''	.
8e-''J	8b-` 8ggJ	.
8FF''	8c'' 8a-''	f
=28	=28	=28
8GG''L	8Bn'' 8g''L	.
8BBn''	8d'' 8f''	.
8C''J	8G'' 8e-''J	.
8F''	8cc'' 8aa-''	p
=29	=29	=29
8G''L	8bn` 8ggL	.
8Bn`	8dd'' 8ff''	.
8c''J	8g'' 8ee-''J	.
8BB-X`	8d'' 8g''	f
=30	=30	=30
8AAn''<L<	8c''> 8f''>L	.
8FF''<	8An<''> 8e-''>	.
8BB-J`<	8F<`''> 8d''>J	.
8B-X`	8dd'' 8gg''	p
=31	=31	=31
8An''L	8cc'' 8ff''L	.
8F''	8an'' 8ee-''	.
8B-''J	8f'' 8dd''J	.
(8GG [8C	8B- ((>8en	sf
!!LO:LB:g=original
=32	=32	=32
8FF 8C])	8An 8f))	.
(<8G [8cL	8b- ((<8eenL	p
8F 8cJ])	8a- 8ffJ))	.
(8GG [8C	8B- ((>8en	sf
=33	=33	=33
8FF 8C])	8An 8f))	.
(<8G [8cL	8een ((<8bb-L	p
8F 8cJ])	8ff 8aanJ))	.
(8GG [8C	8B- (((>8en	sf
=34	=34	=34
8FF 8C])	8An 8f)))	.
(<8G [8cL	8b- (<8eenL	sf
8F 8cJ])	8an 8ffJ)	.
*clefG2	*	*
(8g [8cc	8bb- ((<8eeen	.
=35	=35	=35
8f 8cc])	8aan 8fff))	.
*clefF4	*	*
(8G [8cL	8b- (8eenL	sf
8F) 8cJ]	8an 8ffJ)	.
*clefG2	*	*
8f	16dLL	p
.	16bnJJ	.
=36	=36	=36
8fL	16e-XLL	.
.	16cc	.
8f	16c	.
.	16anJJ	.
8f	16dLL	.
.	16b-X	.
8fJ	16d	.
.	16bnJJ	.
=37	=37	=37
8fL	16e-LL	.
.	16cc	.
8f	16c	.
.	16anJJ	.
8f	16dLL	.
.	16b-X	.
8fJ	16d	.
.	16bnJJ	.
!!LO:LB:g=original
=38	=38	=38
8fL	16e-LL	.
.	16cc	.
8f	16d	.
.	16bnJJ	.
8f	16e-LL	.
.	16cc	.
8fJ	16d	.
.	16bJJ	.
=39	=39	=39
8fL	16e-LL	.
.	16cc	.
8f	16d	.
.	16bnJJ	.
8f	16e-LL	.
.	16cc	.
8fJ	16d	.
.	16bJJ	.
=40	=40	=40
8fL	16e-LL	.
.	16cc	.
8f	16c	.
.	16anJJ	.
8f	16dLL	.
.	16b-	.
8fJ	16d	.
.	16bnJJ	.
=41	=41	=41
8fL	16e-LL	.
.	16cc	.
8f	16c	.
.	16anJJ	.
8f	16dLL	.
.	16b-X	.
8fJ	16d	.
.	16bnJJ	.
=42	=42	=42
8fL	16e-LL	>
.	16cc	.
8f	16d	.
.	16bnJJ	.
8f	16e-LL	.
.	16cc	.
8fJ	16d	.
.	16bJJ	.
!!LO:LB:g=original
=43	=43	=43
8fL	16e-LL	.
.	16cc	.
8f	16d	.
.	16bnJJ	.
8f	16e-LL	.
.	16cc	.
8fJ	16e-	.
.	16ccJJ	.
=44	=44	=44
8f#L	16e-LL	pp
.	16cc	.
8f#	16e-	.
.	16bnJJ	.
8f#	16e-LL	.
.	16cc	.
8f#J	16e-	.
.	16bJJ	.
=45	=45	=45
8f#L	16e-LL	.
.	16cc	.
8f#	16e-	.
.	16bnJJ	.
8f#	16e-LL	.
.	16cc	.
8f#J	16e-	.
.	16ccJJ	.
=46	=46	=46
8gL	16e-LL	<
.	16dd-	.
8g	16e-	.
.	16ccJJ	.
8g	16e-LL	.
.	16dd-	.
8gJ	16e-	.
.	16ccJJ	.
=47	=47	=47
8gL	16e-LL	.
.	16dd-	.
8g	16e-	.
.	16ccJJ	.
8g	16e-LL	.
.	16dd-	.
8gJ	16e-	.
.	16dd-JJ	.
!!LO:LB:g=original
=48	=48	=48
8a-'L	16e-LL	p
.	16dd-	.
8A-'J	16e-	.
.	16ccJJ	.
8r	16e-LL	.
.	16dd-	.
(8g	16e-	.
.	16dd-JJ	.
=49	=49	=49
8a-'L)	16e-LL	.
.	16dd-	.
8A-'J	16e-	.
.	16ccJJ	.
8r	16e-LL	.
.	16dd-	.
(8g	16e-	.
.	16dd-JJ	.
=50	=50	=50
8a-'L)	16e-LL	<
.	16dd-	.
8A-'J	16e-	.
.	16ccJJ	.
*clefF4	*	*
8f#'L	16e-LL	.
.	16cc	.
8F#'J	16e-	.
.	16ccJJ	.
=51	=51	=51
8g'L	16dnLL	.
.	16cc	.
8G'J	16d	.
.	16bnJJ	.
8en'L	16d-LL	.
.	16b-	.
8En'J	16d-	.
.	16b-JJ	.
=52	=52	=52
8fn'L	16cLL	.
.	16b-	.
8F'J	16c	.
.	16anJJ	.
8d'L	16BnLL	.
.	16f 16a-	.
8D'J	16B	.
.	16f 16a-JJ	.
!!LO:LB:g=original
=53	=53	=53
8Bn'L	16dLL	.
.	16f 16a-	.
8BBn'	16d	.
.	16f 16gJJ	.
8c'	16e-LL	.
.	16g	.
8C'J	16e-	.
.	16g-JJ	.
=54	=54	=54
8An'L	16cLL	f
.	16e- 16g-	.
8AAn'	16c	.
.	16e- 16fJJ	.
8B-X'	16dLL	.
.	16f	.
8BB-X'J	16B- 16d	.
.	16fJJ	.
=55	=55	=55
*^	*	*
4ryy	8E-'L<	16G< 16cLL	.
.	.	16f	.
.	8EE-'J	16G< 16c	.
.	.	16e-JJ	.
16E- 16AnLL	8FFF'L	4ryy	.
16c	.	.	.
16E- 16A	8FF'J	.	.
16cJJ	.	.	.
=56	=56	=56	=56
8D 8B-	16BBB-LL	8ryy	.
.	16BB-	.	.
8ryy	16D	(>8B-<L	.
.	16BB-JJ	.	.
16DLL	4ryy	8d	.
16BB-	.	.	.
16D	.	8fJ	.
16BB-JJ	.	.	.
*v	*v	*	*
=57	=57	=57
16DLL	8b-L	sf
16BB-	.	.
16D	8f	.
16BB-JJ	.	.
16DLL	8d	.
16BB-	.	.
16D	8B-J)	.
16BB-JJ	.	.
!!LO:LB:g=original
=58	=58	=58
16BBB-LL	8r	.
16BB-	.	.
16D 16F	(>8dL	.
16BB-JJ	.	.
16D 16FLL	8f	.
16BB-	.	.
16D 16F	8b-J	.
16BB-JJ	.	.
=59	=59	=59
16D 16FLL	8ddL	sf
16BB-	.	.
16D 16F	8b-	.
16BB-JJ	.	.
16D 16FLL	8f	.
16BB-	.	.
16D 16F	8dJ)	.
16BB-JJ	.	.
=60	=60	=60
16BBB-LL	8r	.
16BB-	.	.
16D 16F	8f' 8ff'L	.
16BB-JJ	.	.
16D 16FLL	8b-' 8bb-'	.
16BB-	.	.
16D 16F	8dd' 8ddd'J	.
16BB-JJ	.	.
=61	=61	=61
16D 16FLL	8ff (8fffL	sf
16BB-	.	.
16D 16F	8dd 8ddd)	.
16BB-JJ	.	.
16D 16FLL	8b-' 8bb-'	.
16BB-	.	.
16D 16F	8f' 8ff'J	.
16BB-JJ	.	.
=62	=62	=62
16E-LL	8g' 8gg'L	.
16BB-	.	.
16C	8an' 8aan'	.
16BB-JJ	.	.
16DLL	8b-' 8bb-'	.
16BB-	.	.
16D	8f' 8ff'J	.
16BB-JJ	.	.
!!LO:LB:g=original
=63	=63	=63
16E-LL	8g' 8gg'L	.
16BB-	.	.
16C	8an' 8aan'	.
16BB-JJ	.	.
16DLL	8b-' 8bb-'J	.
16BB-	.	.
16D	8r	.
16BB-JJ	.	.
=64	=64	=64
16BBB-LL	8r	.
16BB-	.	.
16D 16F	8f' 8ff'L	.
16BB-JJ	.	.
16D 16FLL	8b-' 8bb-'	.
16BB-	.	.
16D 16F	8dd' 8ddd'J	.
16BB-JJ	.	.
=65	=65	=65
16D 16FLL	8ff (8fffL	sf
16BB-	.	.
16D 16F	8dd 8ddd)	.
16BB-JJ	.	.
16D 16FLL	8b-' 8bb-'	.
16BB-	.	.
16D 16F	8f' 8ff'J	.
16BB-JJ	.	.
=66	=66	=66
16E-LL	8g' 8gg'L	.
16BB-	.	.
16C	8an' 8aan'	.
16BB-JJ	.	.
16DLL	8b-' 8bb-'	.
16BB-	.	.
16D	8f' 8ff'J	.
16BB-JJ	.	.
=67	=67	=67
16E-LL	8g' 8gg'L	.
16BB-	.	.
16C	8an' 8aan'	.
16BB-JJ	.	.
16DLL	8b-' 8bb-'	.
16BB-	.	.
16D	8f' 8ff'J	.
16BB-JJ	.	.
!!LO:LB:g=original
=68	=68	=68
16E-LL	8g' 8gg'L	.
16BB-	.	.
16C	8an' 8aan'	.
16BB-JJ	.	.
16DLL	8b-' 8bb-'	.
16BB-	.	.
16F	8dd' 8ddd'J	.
16BB-JJ	.	.
=69	=69	=69
16DLL	8b-' 8bb-'L	.
16BB-	.	.
16F	8dd' 8ddd'	.
16BB-JJ	.	.
16DLL	8b-' 8bb-'	.
16BB-	.	.
16D	8f' 8ff'J	.
16BB-JJ	.	.
=70	=70	=70
16E-LL	8g' 8gg'L	.
16BB-	.	.
16C	8an' 8aan'	.
16BB-JJ	.	.
16DLL	8b-' 8bb-'	.
16BB-	.	.
16F	8dd' 8ddd'J	.
16BB-JJ	.	.
=71	=71	=71
16DLL	8b-' 8bb-'L	.
16BB-	.	.
16F	8dd' 8ddd'	.
16BB-JJ	.	.
16DLL	8b-' 8bb-'	.
16BB-	.	.
16F	8dd' 8ddd'J	.
16BB-JJ	.	.
=72	=72	=72
16DLL	8b-' 8bb-'L	.
16BB-	.	.
16A-X	8f' 8ff'	.
16BB-JJ	.	.
16FLL	8d' 8dd'	.
16BB-	.	.
16A-	8f' 8ff'J	.
16BB-JJ	.	.
!!LO:LB:g=original
=73	=73	=73
16FLL	8d' 8dd'L<	.
16BB-	.	.
16A-	8f' 8ff'	.
16BB-JJ	.	.
16FLL	8d' 8dd'	.
16BB-	.	.
16A-	8f' 8ff'J	.
16BB-JJ	.	.
=74	=74	=74
16FLL	8d' 8dd'L	.
16BB-	.	.
16c-	8a-X' 8aa-X'	.
16BB-JJ	.	.
16A-LL	8f' 8ff'	.
16BB-	.	.
16c-	8a-' 8aa-'J	.
16BB-JJ	.	.
=75	=75	=75
16A-LL	8f' 8ff'L	.
16BB-	.	.
16c-	8a-' 8aa-'	.
16BB-JJ	.	.
16A-LL	8f' 8ff'	.
16BB-	.	.
16c-	8a-' 8aa-'J	.
16BB-JJ	.	.
=76	=76	=76
16A-LL	8f' 8ff'L	.
16BB-	.	.
16A-	8f' 8ff'J	.
16BB-JJ	.	.
16FLL	8d' 8dd'L	.
16BB-	.	.
16c-	8a-' 8aa-'J	sf
16BB-JJ	.	.
=77	=77	=77
16A-LL	8f' 8ff'L	.
16BB-	.	.
16A-	8f' 8ff'J	.
16BB-JJ	.	.
16FLL	8d' 8dd'L	.
16BB-	.	.
16c-	8a-' 8aa-'J	sf
16BB-JJ	.	.
!!LO:LB:g=original
=78	=78	=78
16A-LL	8f' 8ff'L	.
16BB-	.	.
16A-	8f' 8ff'J	sf
16BB-JJ	.	.
16FLL	8d' 8dd'L	.
16BB-	.	.
16F	8d' 8dd'J	sf
16BB-JJ	.	.
=79	=79	=79
16DLL<	8A-< 8a-L	.
16BB-	.	.
16D	8A-< 8a-J	sf
16BB-JJ	.	.
16AA-LL<	8F< 8fL	.
16BB-	.	.
16AA-	8F< 8fJ	sf
16BB-JJ	.	.
=80	=80	=80
8rAAA	2F< 2A- 2d	f
8BBB-L<	.	.
8BBB-	.	.
8BBB-J	.	.
=81	=81	=81
*^	*	*
2AA-T	8BBB-L	2ryy	.
.	8BBB-	.	.
.	8BBB-	.	.
.	8BBB-J	.	.
(<16qGGLL	.	.	.
16qAA-JJ)	.	.	.
=82	=82	=82	=82
(4GG 4E-	16r	2ryy	.
.	16EE-LL	.	.
.	16FF	.	.
.	16GGJJ	.	.
4C)	16AA-LL	.	.
.	16GG	.	.
.	16FF	.	.
.	16EE-JJ	.	.
=83	=83	=83	=83
8BB-L	16DDLL	2ryy	.
.	16CC	.	.
8AA-TJ	16DD	.	.
.	16BBB-JJ	.	.
(16qGGLL	.	.	.
16qAA-JJ	.	.	.
4GG)	16EE-LL	.	.
.	16DD	.	.
.	16EE-	.	.
.	16EEnJJ	.	.
!!LO:LB:g=original
=84	=84	=84	=84
(16AA-LL	16FFLL	2ryy	<
16BB-	16GG	.	.
16C	16AA-	.	.
16DJJ	16BB-JJ	.	.
16E-LL	16CLL	.	.
16F	16D	.	.
16G	16E-	.	.
16AnJJ	16CJJ	.	.
=85	=85	=85	=85
16B-LL	16DLL	4.ryy	.
16c	16E-	.	.
16An	16F	.	.
16FJJ	16E-JJ	.	.
8B-)	16DLL	.	.
.	16C	.	.
8ryy	16BB-	8B-' 8b-'	.
.	16AA-XJJ	.	.
*v	*v	*	*
=86	=86	=86
16GGLL	4e- 4ee-	f
16E-	.	.
16F	.	.
16GJJ	.	.
16A-LL	4c 4cc	.
16G	.	.
16F	.	.
16E-JJ	.	.
=87	=87	=87
16DLL	8b-L	.
16C	.	.
16D	8a-TJ	.
16BB-JJ	.	.
.	(16qgLL	.
.	16qa-JJ	.
16E-LL	4g)	.
16D	.	.
16E-	.	.
16EnJJ	.	.
=88	=88	=88
(16FLL	(16a-LL	.
16G	16b-	.
16A-	16cc	.
16B-JJ	16ddJJ	.
16cLL	16ee-LL	.
16d	16ff	.
16e-	16gg	.
16fJJ)	16aa-JJ	.
=89	=89	=89
*^	*	*
(16gLL	4B-	16bb-LL	sf
16a-	.	16ccc	.
16f	.	16aa-	.
16dJJ)	.	16ffJJ)	.
8ryy	8E- 8e-	8ee-	.
8ryy	8r	8r	.
*v	*v	*	*
!!LO:LB:g=original
=90	=90	=90
16DLL	8b-'L	p
16B-	.	.
16F	8d' 8dd'J	.
16B-JJ	.	.
16A-LL	4f/ 4ff/	sf
16B-	.	.
16A-	.	.
16B-JJ	.	.
=91	=91	=91
16FLL	8d' 8dd'L	.
16B-	.	.
16A-	8f' 8ff'J	.
16B-JJ	.	.
16cLL	[4a- [4aa-	sf
16B-	.	.
16c	.	.
16B-JJ	.	.
=92	=92	=92
16cLL	8a-] (8aa-L]	.
16B-	.	.
16c	8g 8gg)	.
16B-JJ	.	.
16A-LL	8f' 8ff'	.
16B-	.	.
16G	8e-' 8ee-'J	.
16B-JJ	.	.
=93	=93	=93
16FLL	8d' 8dd'L	.
16B-	.	.
16G	8e-' 8ee-'	.
16B-JJ	.	.
16E-LL	8c' 8cc'	.
16B-	.	.
16C	8an'J	.
16B-JJ	.	.
=94	=94	=94
16DLL	8b-L	.
16B-	.	.
16F	8d' 8dd'J	.
16B-JJ	.	.
16A-LL	4f/ 4ff/	sf
16B-	.	.
16A-	.	.
16B-JJ	.	.
!!LO:LB:g=original
=95	=95	=95
16FLL	8d' 8dd'L	.
16B-	.	.
16A-	8f' 8ff'J	.
16B-JJ	.	.
16cLL	[4a-X [4aa-X	sf
16B-	.	.
16c	.	.
16B-JJ	.	.
=96	=96	=96
16cLL	8a-] (8aa-L]	.
16B-	.	.
16c	8g 8gg)	.
16B-JJ	.	.
16A-LL	8f' 8ff'	.
16B-	.	.
16G	8e-' 8ee-'J	.
16B-JJ	.	.
=97	=97	=97
*^	*	*
16A-LL	8BB-L	8c' 8cc'L	.
16B-	.	.	.
16F	8BB-J	8d' 8dd'J	.
16B-JJ	.	.	.
16GLL	8E-	8e-' 8ee-'	.
16B-	.	.	.
16G	8rBB	8r	.
16E-JJ	.	.	.
*v	*v	*	*
=98	=98	=98
16DLL	8b-'L	.
16B-	.	.
16F	8d' 8dd'J	.
16B-JJ	.	.
16A-LL	4f/ 4ff/	sf
16B-	.	.
16A-	.	.
16B-JJ	.	.
=99	=99	=99
16FLL	8d' 8dd'L	.
16B-	.	.
16A-	8f' 8ff'J	.
16B-JJ	.	.
16c-LL	[4a- [4aa-	sf
16B-	.	.
16c-	.	.
16B-JJ	.	.
!!LO:LB:g=original
=100	=100	=100
16c-LL	8a-] 8aa-L]	.
16B-	.	.
16c-	8g- 8gg-	.
16B-JJ	.	.
16A-LL	8f' 8ff'	.
16B-	.	.
16G-	8e-' 8ee-'J	.
16B-JJ	.	.
=101	=101	=101
16FLL	8d' 8dd'L	.
16B-	.	.
16G-	8e-' 8ee-'	.
16B-JJ	.	.
16E- 16G-LL	8c-' 8cc-'	.
16B-	.	.
16E- 16G-	8an'J	.
16B-JJ	.	.
=102	=102	=102
16D 16FLL	8b-'L	.
16B-	.	.
16F	8d' 8dd'J	.
16B-JJ	.	.
16A-LL	4f/ 4ff/	sf
16B-	.	.
16A-	.	.
16B-JJ	.	.
=103	=103	=103
16FLL	8d' 8dd'L	.
16B-	.	.
16A-	8f' 8ff'J	.
16B-JJ	.	.
16c-LL	[4a- [4aa-	sf
16B-	.	.
16c-	.	.
16B-JJ	.	.
=104	=104	=104
*^	*	*
16c-LL	[2D-	8a-] (8aa-L]	f
16B-	.	.	.
16c-	.	8g- 8gg-)	.
16B-JJ	.	.	.
16A-LL	.	8f' 8ff'	.
16c-	.	.	.
16G-	.	8e-' 8ee-'J	.
16B-JJ	.	.	.
!!LO:LB:g=original
=105	=105	=105	=105
16FLL	4.D-]	8d-' 8dd-'L	.
16A-	.	.	.
16G-	.	8e-' 8ee-'	.
16B-JJ	.	.	.
16FLL	.	8d-' 8dd-'	.
16A-	.	.	.
16F	8D-	8c-' 8cc-'J	.
16A-JJ	.	.	.
=106	=106	=106	=106
16ryy	4GG- 4G-	16B- 16b-	f
16G-LL	.	8.ryy	.
16A-	.	.	.
16B-JJ	.	.	.
16c-LL	4EE- 4E-	4ryy	.
16B-	.	.	.
16c-	.	.	.
16cnJJ	.	.	.
*v	*v	*	*
=107	=107	=107
4.DD-z 4.D-z	16d-LL	.
.	16c	.
.	16d-	.
.	16e-JJ	.
.	16fLL	.
.	16d-	.
8CC-' 8C-'	16e-	.
.	16fJJ	.
=108	=108	=108
8BBB-' 8BB-'L	16g-LL	.
.	16f	.
8GGG-' 8GG-'	16g-	.
.	16fJJ	.
8CCn' 8Cn'	16g-LL	.
.	16b-	.
8AAA-' 8AA-'J	16a-	.
.	16g-JJ	.
=109	=109	=109
16DD-' 16D-'	4f' 4dd-'	p
16D-LL	.	.
16E-	.	.
16FJJ	.	.
16G-LL	4b-'/	.
16F	.	.
16G-	.	.
16GnJJ	.	.
!!LO:LB:g=original
=110	=110	=110
16A-LL	4.a-	sf
16G	.	.
16A-	.	.
16B-JJ	.	.
16cLL	.	.
16A-	.	.
16B-	8g-'	.
16cJJ	.	.
*clefG2	*	*
=111	=111	=111
16d-LL	8f'L	.
16c	.	.
16d-	8g-'	.
16e-JJ	.	.
16fLL	8a-'	.
16g-	.	.
16a-	8cc-' 8dd-'J	.
16fJJ	.	.
*clefF4	*	*
=112	=112	=112
16r	4g-' 4b-' 4dd-' 4gg-'	f
16GGG-LL	.	.
16AAA-	.	.
16BBB-JJ	.	.
16CC-LL	4e-'\ 4g-'\ 4a-'\ 4ee-'\	.
16BBB-	.	.
16CC-	.	.
16CCnJJ	.	.
=113	=113	=113
16DD-LL	4.d- 4.f 4.a- 4.dd-	sf
16CC	.	.
16DD-	.	.
16EE-JJ	.	.
16FFLL	.	.
16DD-	.	.
16EE-	8c-' 8cc-'	.
16FFJJ	.	.
=114	=114	=114
16GG-LL	8B-' 8b-'L	.
16FF	.	.
16GG-	8G-' 8g-'	.
16BB-JJ	.	.
16AA-LL	8cn' 8ccn'	.
16GG-	.	.
16FF	8A-' 8a-'J	.
16EE-JJ	.	.
!!LO:LB:g=original
=115	=115	=115
16FFLL	4.d- 4.dd-	sf
16EEn	.	.
16FF	.	.
16DD-JJ	.	.
16GGnLL	.	.
16FF#	.	.
16GG	8d-' 8dd-'	.
16EE-JJ	.	.
=116	=116	=116
16AA-LL	8c-' 8cc-'L	.
16GG	.	.
16AA-	8A-' 8a-'	.
16C-JJ	.	.
16BB-LL	8dn' 8ddn'	.
16AA-	.	.
16GG-	8B-' 8b-'J	.
16FFJJ	.	.
=117	=117	=117
16GGnLL	4.e- 4.ee-	sf
16FF	.	.
16GG	.	.
16EE-JJ	.	.
16AAnLL	.	.
16GG#	.	.
16AA	8e- 8ee-	.
16FFJJ	.	.
=118	=118	=118
4BB-' 4B-'	16dd-LL	ff
.	16b-	.
.	16cc	.
.	16dd-JJ	.
4GG-'\ 4G-'\	16ee-LL	.
.	16ddn	.
.	16ee-	.
.	16eenJJ	.
=119	=119	=119
4.FFz 4.Fz	16ffLL	.
.	16een	.
.	16ff	.
.	16ggnJJ	.
.	16aanLL	.
.	16ff	.
8EE-X' 8E-X'	16gg	.
.	16aaJJ	.
!!LO:LB:g=original
=120	=120	=120
8DD-' 8D-'L	16bb-LL	.
.	16aan	.
8BBB-' 8BB-'	16bb-	.
.	16aaJJ	.
8EEn' 8En'	16bb-LL	.
.	16ddd-	.
8CC' 8C'J	16ccc	.
.	16bb-JJ	.
=121	=121	=121
4FF 4F	8a-' 8aa-'L	.
.	8f' 8ff'J	.
8DDn 8DnL	4b- 4bb-	sf
8BBB- 8BB-J	.	.
=122	=122	=122
4EE-X 4E-X	8g-' 8gg-'L	.
.	8e-' 8ee-'J	.
8CC 8CL	4a- 4aa-	sf
8AAA-X 8AA-XJ	.	.
=123	=123	=123
8DD- 8D-	8f (8ffL	p
(8B-L	8dd-	.
8E-	8gg-	.
8G-J	8ee-J	.
=124	=124	=124
8A-XL	8ccL	.
8D-	8ff	.
8F	8dd-	.
8G-J	8b-J	.
=125	=125	=125
8CL	8ee-L	.
8E-	8cc	.
8FJ)	8anJ)	.
8BB-' 8B-'	8dd-' 8ddd-'	f
!!LO:LB:g=original
=126	=126	=126
8D-' 8d-'L	8b-' 8bb-'L	.
8E-X' 8e-X'J	8g-' 8gg-'J	.
8AA-X' 8A-X'L	8cc-' 8ccc-'L	.
8C-' 8c-'J	8a-X' 8aa-X'J	.
=127	=127	=127
8D-' 8d-'L	8f' 8ff'L	.
8GG-' 8G-'J	8b-' 8bb-'J	.
8BB-' 8B-'L	8g-' 8gg-'L	.
8C-' 8c-'J	8e-' 8ee-'J	.
=128	=128	=128
8FF' 8F'L<	8a-X' 8aa-X'L	.
8AA-' 8A-'J	8f' 8ff'J	.
8BB-' 8B-'L	8dn' 8ddn'L<	.
8GG-' 8G-'J	8e-' 8ee-'J	.
=129	=129	=129
16GGnLL	16en 16b- 16dd-LL>	ff
16Gn	16een	.
16GG	16e 16b- 16dd-	.
16GJJ	16eeJJ	.
16GG-LL	16e 16b- 16dd-LL>	.
16G-	16ee	.
16GG-	16e 16b- 16dd-	.
16G-JJ	16eeJJ	.
=130	=130	=130
16FFLL	16f 16b- 16dd-LL>	.
16F	16ff	.
16FF	16f 16b- 16dd-	.
16FJJ	16ffJJ	.
16FFFLL	16c 16e-LL	.
16FF	16an	.
16FFF	16c 16e-	.
16FFJJ	16aJJ	.
=131	=131	=131
16BBB-LL	4B-' 4d-' 4b-'	.
16BB-	.	.
16BBB-	.	.
16BB-JJ	.	.
16GGG-LL	4en' 4b-' 4dd-' 4een'	sf
16GG-	.	.
16GGG-	.	.
16GG-JJ	.	.
!!LO:LB:g=original
=132	=132	=132
16FFFLL	4.f/ 4.b-/ 4.dd-/ 4.ff/	.
16FF	.	.
16FFF	.	.
16FFJJ	.	.
16FFFLL	.	.
16FF	.	.
16FFF	8An' 8an'	.
16FFJJ	.	.
=133	=133	=133
16BBB-LL	4B-' 4b-'	.
16BB-	.	.
16BBB-	.	.
16BB-JJ	.	.
16GGG-LL	4een' 4bb-' 4ddd-' 4eeen'	sf
16GG-	.	.
16GGG-	.	.
16GG-JJ	.	.
=134	=134	=134
16FFFLL	4.ff 4.bb- 4.ddd- 4.fff	.
16FF	.	.
16FFF	.	.
16FFJJ	.	.
16FFFLL	.	.
16FF	.	.
16FFF	8an' 8aan'	.
16FFJJ	.	.
=135	=135	=135
16BBB-LL	8b-' 8bb-'	.
16BB-	.	.
16GGG-	(8en 8eenL>	sf
16GG-JJ	.	.
16FFFLL	8f) 8ffJ	.
16FF	.	.
16FFF	8An' 8an'	.
16FFJJ	.	.
=136	=136	=136
16BBB-LL	8B-' 8b-'	.
16BB-	.	.
16GGG-	8een (8eeenL	sf
16GG-JJ	.	.
16FFFLL	8ff 8fffJ)	.
16FF	.	.
16FFF	8an' 8aan'	.
16FFJJ	.	.
!!LO:LB:g=original
=137	=137	=137
16BBB-LL	8b-' 8bb-'	.
16BB-	.	.
16GGG-	(8en 8eenL>	sf
16GG-JJ	.	.
16FFFLL	8f) 8ffJ	.
16FF	.	.
16FFF	8An' 8an'	.
16FFJJ	.	.
=138	=138	=138
16BBB-LL	8B-' 8b-'	.
16BB-	.	.
16GGG-	8een (8eeenL	sf
16GG-JJ	.	.
16FFFLL	8ff 8fffJ)	.
16FF	.	.
16FFF	8an' 8aan'	.
16FFJJ	.	.
=139	=139	=139
8BBB- 8BB-	8b-' 8bb-'L	fp
8r	8b-' 8bb-'	.
4r	8b-' 8bb-'	.
.	8b-' 8bb-'J	.
=140	=140	=140
4r	8b-' 8bb-'L	.
.	8b-' 8bb-'	.
*clefG2	*	*
8r	8b-' 8bb-'	.
(8e- 8g-	8b-' 8bb-'J	.
=141	=141	=141
8f 8a-L	8b- 8bb-L	.
8d 8f	8b- 8bb-	.
8e-' 8g-')	8b- 8bb-	.
(8e- 8g-J	8b- 8bb-J	.
=142	=142	=142
8f 8a-L	8b- 8bb-L	.
8d 8f	8b- 8bb-	.
8e-') 8g-'	8b- 8bb-	.
(8e- 8g-J	8b- 8bb-J	.
!!LO:LB:g=original
=143	=143	=143
8f 8a-L	8b- 8bb-L	.
8d 8f	8b- 8bb-	.
8e-') 8g-'J	8b- 8bb-	.
8r	8g- 8gg-J	.
=144	=144	=144
4r	8g- 8gg-L	.
.	8g- 8gg-	.
8r	8g- 8gg-	.
(8c- 8e-	8g- 8gg-J	.
=145	=145	=145
8d- 8f-L	8g- 8gg-L	.
8B- 8d-	8g- 8gg-	.
8c-') 8e-'	8g- 8gg-	.
(8c- 8e-J	8g- 8gg-J	.
=146	=146	=146
8d- 8f-L	8g- 8gg-L	.
8B- 8d-	8g- 8gg-	.
8c' 8e-')	8g- 8gg-	.
(8c 8e-J	8g- 8gg-J	.
=147	=147	=147
8d- 8f-L	8g- 8gg-L	.
8B- 8d-	8g- 8gg-	.
8c-' 8e-'J)	8g- 8gg-	.
8r	8e- 8ee-J	.
=148	=148	=148
4r	8e- 8ee-L<	.
.	8e- 8ee-	.
*clefF4	*	*
8r	8e- 8ee-	.
8A- (8c-	8e- 8ee-J	.
=149	=149	=149
8B- 8d-L	8e- 8ee-L<	.
8G 8B-	8e- 8ee-	.
8A-' 8c-')	8e- 8ee-	.
8A- (8c-J	8e- 8ee-J	.
!!LO:LB:g=original
=150	=150	=150
8B- 8d-L	8e- 8ee-L<	.
8G' 8B-'	8e- 8ee-	.
8A-' 8c-')	8e- 8ee-	.
8A- (8c-J	8e- 8ee-J	.
=151	=151	=151
8B- 8d-L	8e- 8ee-L<	.
8G' 8B-'	8e- 8ee-	.
8A-' 8c-'J)	8e- 8ee-	.
8r	8e- 8ee-J	.
=152	=152	=152
4r	8e- 8ee-L<	.
.	8e- 8ee-	.
8r	8e- 8ee-	.
8A- (8c-	8e- 8ee-J	pp
=153	=153	=153
8B- 8d-L	8e- 8ee-L<	.
8G' 8B-'	8e- 8ee-	.
8A-' 8c-'J)	8e- 8ee-	.
8r	8e- 8ee-J	.
=154	=154	=154
4r	8e- 8ee-L<	.
.	8e- 8ee-	.
8r	8e- 8ee-	.
8A- (8c-	8e- 8ee-J	.
=155	=155	=155
8F 8A-)	(8e- 8ee-L	.
8r	8dn 8ddn)	.
4r	8d' 8dd'	.
.	8d' 8dd'J	.
=156	=156	=156
4r	8d' 8dd'L	.
.	8d' 8dd'	.
8r	8d' 8dd'	.
8F (8A-	8d' 8dd'J	.
=157	=157	=157
8D 8F)	(8en 8eenL	.
8r	8f 8ff)	.
4r	8f' 8ff'	.
.	8f' 8ff'J	.
!!LO:LB:g=original
=158	=158	=158
4r	8f' 8ff'L	.
.	8f' 8ff'	.
8r	8f' 8ff'	.
8D (8F	8f' 8ff'J	.
=159	=159	=159
8BB- 8D)	(8an' 8aan'L	.
8r	8b- 8bb-)	.
4r	8b- 8bb-	.
.	8b-' 8bb-'J	.
=160	=160	=160
4r	8b-' 8bb-'L	pp
.	8b-' 8bb-'	.
8r	8b-' 8bb-'	.
8D (8F	8b-' 8bb-'J	.
=161	=161	=161
4BB- 4D)	(8an 8aanL	.
.	8b- 8bb-)	.
8r	8b-' 8bb-'	.
8D (8F	8b- 8bb-J	.
=162	=162	=162
4BB- 4D)	8an 8aanL	.
.	8b- 8bb-	.
8r	8b-' 8bb-'	.
8D (8F	8b-' 8bb-'J	.
=163	=163	=163
8BB- 8D)	8an 8aanL	.
8r	8b- 8bb-	.
4r	8b-' 8bb-'	<
.	8b-' 8bb-'J	.
=164	=164	=164
2r	8b-' 8bb-'L	.
.	8b-' 8bb-'	.
.	8b-' 8bb-'	.
.	8b-' 8bb-'J	.
!!LO:LB:g=original
=165	=165	=165
[2DDtt	8b-' 8bb-'L	<
.	8b-' 8bb-'	.
.	8b-' 8bb-'	.
.	8b-' 8bb-'J	.
=166	=166	=166
2DDttt]	8b-' 8bb-'L	.
.	8b-' 8bb-'	.
.	8b-' 8bb-'	.
.	8b-' 8bb-'J	.
(16qCCLL	.	.
16qDDJJ)	.	.
=167	=167	=167
*^	*	*
(4E-	8EE-L	2ryy	p
.	16FFL	.	.
.	16GGJJ	.	.
4C)	16AA-LL	.	.
.	16GG	.	.
.	16FF	.	.
.	16EE-JJ	.	.
=168	=168	=168	=168
8BB-L	16DDLL	2ryy	.
.	16CC	.	.
8AA-TJ	16DD	.	.
.	16BBB-JJ	.	.
(<16qGGLL	.	.	.
16qAA-JJ	.	.	.
4GG)	16EE-LL	.	.
.	16DD	.	.
.	16EE-	.	.
.	16EEnJJ	.	.
=169	=169	=169	=169
(16AA-LL	16FFLL	2ryy	<
16BB-	16GG	.	.
16C	16AA-	.	.
16DJJ	16BB-JJ	.	.
16E-LL	16CLL	.	.
16F	16D	.	.
16G	16E-	.	.
16AnJJ	16CJJ	.	.
=170	=170	=170	=170
16B-LL	16DLL	4r	.
16c	16E-	.	.
16An	16F	.	.
16FJJ)	16E-JJ	.	.
4ryy	16DLL<	8B-'L	.
.	16C	.	.
.	16BB-	8B-' 8b-'J	.
.	16AA-XJJ	.	.
*v	*v	*	*
!!LO:LB:g=original
=171	=171	=171
16GGLL	4e- 4ee-	f
16E-	.	.
16F	.	.
16GJJ	.	.
16A-LL	4c 4cc	.
16G	.	.
16F	.	.
16E-JJ	.	.
=172	=172	=172
16DLL<	8b-L	.
16C	.	.
16D	8a-TJ	.
16BB-JJ	.	.
.	(16qgLL	.
.	16qa-JJ	.
16E-LL	4g)	.
16D	.	.
16E-	.	.
16EnJJ	.	.
=173	=173	=173
(16FLL	(16a-LL	.
16G	16b-	.
16A-	16cc	.
16B-JJ	16ddJJ	.
16cLL	16ee-LL	.
16d	16ff	.
16e-	16gg	.
16fJJ)	16aa-JJ	.
=174	=174	=174
*^	*	*
(16gLL	4B-	16bb-LL	sf
16a-	.	16ccc	.
16f	.	16aa-	.
16dJJ)	.	16ffJJ	.
4ryy	8E- 8e-	8ee-)	.
.	8r	8r	.
*v	*v	*	*
=175	=175	=175
16DLL	8b-'L	p
16B-	.	.
16F	8d' 8dd'J	.
16B-JJ	.	.
16A-LL	4f/ 4ff/	sf
16B-	.	.
16A-	.	.
16B-JJ	.	.
!!LO:LB:g=original
=176	=176	=176
16FLL	8d' 8dd'L	.
16B-	.	.
16A-	8f' 8ff'J	.
16B-JJ	.	.
16cLL	[4a- [4aa-	sf
16B-	.	.
16c	.	.
16B-JJ	.	.
=177	=177	=177
16cLL	8a-] (8aa-L]	.
16B-	.	.
16c	8g 8gg)	.
16B-JJ	.	.
16A-LL	8f' 8ff'	.
16B-	.	.
16G	8e-' 8ee-'J	.
16B-JJ	.	.
=178	=178	=178
16FLL	8d' 8dd'L	.
16B-	.	.
16G	8e-' 8ee-'	.
16B-JJ	.	.
16E-LL	8c' 8cc'	.
16B-	.	.
16C	8an'J	.
16B-JJ	.	.
=179	=179	=179
16DLL	8b-'L	.
16B-	.	.
16F	8d' 8dd'J	.
16B-JJ	.	.
16A-LL	4f'/ 4ff'/	sf
16B-	.	.
16A-	.	.
16B-JJ	.	.
=180	=180	=180
16FLL	8d' 8dd'L	.
16B-	.	.
16A-	8f' 8ff'J	.
16B-JJ	.	.
16cLL	[4a-X [4aa-X	sf
16B-	.	.
16c	.	.
16B-JJ	.	.
!!LO:LB:g=original
=181	=181	=181
16cLL	8a-] (8aa-L]	.
16B-	.	.
16c	8g 8gg)	.
16B-JJ	.	.
16A-LL	8f' 8ff'	.
16B-	.	.
16G	8e-' 8ee-'J	.
16B-JJ	.	.
=182	=182	=182
*^	*	*
16A-LL	8BB-L	8c' 8cc'L	.
16B-	.	.	.
16F	8BB-J	8d' 8dd'	.
16B-JJ	.	.	.
16GLL	8E-	8e-' 8ee-'J	.
16B-	.	.	.
16G	8rBB	8r	.
16E-JJ	.	.	.
*v	*v	*	*
=183	=183	=183
8B-' 8BB-'L	16r	.
.	(16bb-LL	.
8D' 8d'J	16aan	.
.	16bb-JJ	.
4F 4f	16aaLL	sf
.	16bb-	.
.	16aa-	.
.	16bb-JJ)	.
=184	=184	=184
8D' 8d'L	(16ffLL	.
.	16bb-	.
8F' 8f'J	16aan	.
.	16bb-JJ	.
[4A-X [4a-X	16ffLL	.
.	16bb-	.
.	16dd	.
.	16bb-JJ)	.
=185	=185	=185
8A-] ((<8a-L]	(16b-LL	.
.	16bb-	.
8G 8g))	16b- 16ee-	.
.	16bb-JJ	.
8F' 8f'	16dd 16ffLL	.
.	16bb-	.
8E-' 8e-'J	16ee- 16gg	.
.	16bb-JJ)	.
!!LO:LB:g=original
=186	=186	=186
8D' 8d'L	16ff (16aa-XLL	.
.	16bb-	.
8E-' 8e-'J	16ee- 16gg	.
.	16bb-JJ	.
8C' 8c'L	16ee- 16ggLL	.
.	16bb-	.
8AAn' 8An'J	16ee- 16gg	.
.	16bb-JJ)	.
=187	=187	=187
8BB-' 8B-'L	16dd (16ffLL	.
.	16bb-	.
8D' 8d'J	16aan	.
.	16bb-JJ	.
4Fz 4fz	16aaLL	.
.	16bb-	.
.	16aa-	.
.	16bb-JJ)	.
=188	=188	=188
8D' 8d'L	(16ffLL	.
.	16bb-	.
8F' 8f'J	16aan	.
.	16bb-JJ	.
[4A-Xz [4a-Xz	16ffLL	.
.	16bb-	.
.	16dd	.
.	16bb-JJ)	.
=189	=189	=189
8A-] ((<8a-L]	(16b-LL	.
.	16bb-	.
8G 8g))	16b- 16ee-	.
.	16bb-JJ	.
8F' 8f'	16dd 16ffLL	.
.	16bb-	.
8E-' 8e-'J	16ee- 16gg	.
.	16bb-JJ)	.
=190	=190	=190
8C' 8c'L	16ee- (16aa-XLL	.
.	16bb-	.
8D 8d	16a- 16ff	.
.	16bb-JJ	.
8E-' 8e-'J	8g' 8ee-')	.
8r	8B-	.
!!LO:LB:g=original
=191	=191	=191
4EE-\ 4E-\	4G< 4B<- 4e-	f
4AAA-\ 4AA-\	4E-< 4A-< 4c<	.
=192	=192	=192
*^	*	*
8D` 8F 8B-L	8BBB-'' 8BB-''L	4.ryy	.
8F 8A-	8DD'' 8BB-''	.	.
8E-'' 8G''J	8EE-` 8BB-J	.	.
8ryy	8A-''	8ee-` 8ccc	p
*v	*v	*	*
=193	=193	=193
8B-''L	8dd'' 8bb-''L	.
8d''	8ff'' 8aa-''	.
8e-''J	8b-'' 8gg''J	.
8FF''	8c'' 8a-''	f
=194	=194	=194
8GG`L	8Bn'' 8g''L	.
8BBn''	8d'' 8f''	.
8C`J	8G'' 8e-''J	.
8F''	8cc'' 8aa-''	p
=195	=195	=195
8G''L	8bn'' 8gg''L	.
8Bn''	8dd'' 8ff''	.
8c''J	8g'' 8ee-''J	.
8DD-''	8A-'' 8f''	f
=196	=196	=196
8EE-`<L<	8G''> 8e-''>L	.
8GG''<	8B-''> 8d''>	.
8AA-`<J	8E-<''> 8c''>J	.
8D-''	8a-'' 8ff''	p
=197	=197	=197
8E-''L	8g'' 8ee-''L	.
8G''	8b-'' 8dd-''	.
8A-''J	8e-'' 8cc''J	.
(8FF 8F	(8A- 8d-	sf
!!LO:LB:g=original
=198	=198	=198
*^	*	*
8EEn 8En)	4.ryy	8G) 8c	.
8E 8G [8cL	.	8b- ((<8bb-L	p
8F 8A- 8cJ]	.	8a- 8aa-J))	.
(8G- 8c-	(8EE- 8E-	8ryy	sf
=199	=199	=199	=199
8F 8B-)	8DD) 8D	8r	.
4.ryy	8D 8F [8B-L	((<8a- 8aa-L	p
.	8E- 8Gn 8B-J]	8g 8ggJ))	.
.	(<8C [8F	(>(8An 8e-	sf
*v	*v	*	*
=200	=200	=200
8BB-) 8F]	8B- 8d))	.
8c [8fL	(8an 8ee-L	p
8B- 8fJ]	8b- 8ddJ)	.
(<8C [8F	((>8An 8e-	sf
=201	=201	=201
8BB-) 8F]	8B- 8d))	.
8c [8fL	(<(8ee- 8aanL	p
8B- 8fJ]	8dd 8bb-J))	.
(<8C [8F	((>8An 8e-	sf
=202	=202	=202
8BB-) 8F]	8B- 8d))	.
*clefG2	*	*
(8c [8fL	((<8an\ 8ee-\L	sf
8B-) 8fJ]	8b- 8ddJ))	.
8f\ (8cc\	(8ee- 8aan	sf
=203	=203	=203
8b-)	8dd 8bb-)	.
*clefF4	*	*
8F (8cL	(8e- 8anL	sf
8BB- 8B-J)	8d 8b-J)	.
8B-	16GLL	p
.	16enJJ	.
!!LO:LB:g=original
=204	=204	=204
8B-L	16A-XLL	.
.	16f	.
8B-	16F	.
.	16dJJ	.
8B-	16GLL	.
.	16e-X	.
8B-J	16G	.
.	16enJJ	.
=205	=205	=205
8B-L	16A-LL	.
.	16f	.
8B-	16F	.
.	16dJJ	.
8B-	16GLL	.
.	16e-X	.
8B-J	16G	.
.	16enJJ	.
=206	=206	=206
8B-L	16A-LL	.
.	16f	.
8B-	16G	.
.	16enJJ	.
8B-	16A-LL	.
.	16f	.
8B-J	16G	.
.	16eJJ	.
=207	=207	=207
8B-L	16A-LL	.
.	16f	.
8B-	16G	.
.	16enJJ	.
8B-J	16A-LL	.
.	16f	.
*clefG2	*	*
8b-	16g	.
.	16eenJJ	.
=208	=208	=208
8b-L	16a-LL	.
.	16ff	.
8b-	16f	.
.	16ddJJ	.
8b-	16gLL	.
.	16ee-X	.
8b-J	16g	.
.	16eenJJ	.
!!LO:LB:g=original
=209	=209	=209
8b-L	16a-LL	.
.	16ff	.
8b-	16f	.
.	16ddJJ	.
8b-	16gLL	.
.	16ee-X	.
8b-J	16g	.
.	16eenJJ	.
=210	=210	=210
8b-L	16a-LL	>
.	16ff	.
8b-	16g	.
.	16eenJJ	.
8b-	16a-LL	.
.	16ff	.
8b-J	16g	.
.	16eeJJ	.
=211	=211	=211
8b-L	16a-LL	.
.	16ff	.
8b-	16g	.
.	16eenJJ	.
8b-	16a-LL	.
.	16ff	.
8b-J	16a-	.
.	16ffJJ	.
=212	=212	=212
8bnL	16a-LL	pp
.	16ff	.
8b	16a-	.
.	16eenJJ	.
8b	16a-LL	.
.	16ff	.
8bJ	16a-	.
.	16eeJJ	.
=213	=213	=213
8bnL	16a-LL	.
.	16ff	.
8b	16a-	.
.	16eenJJ	.
8b	16a-LL	.
.	16ff	.
8bJ	16a-	.
.	16ffJJ	.
=214	=214	=214
8ccL	16a-LL	<
.	16gg-	.
8cc	16a-	.
.	16ffJJ	.
8cc	16a-LL	.
.	16gg-	.
8ccJ	16a-	.
.	16ffJJ	.
!!LO:LB:g=original
=215	=215	=215
8ccL	16a-LL	.
.	16gg-	.
8cc	16a-	.
.	16ffJJ	.
8cc	16a-LL	.
.	16gg-	.
(8ccJ	16a-	.
.	16gg-JJ	.
=216	=216	=216
8dd-'L)	16a-LL	p
.	16gg-	.
8d-'J	16a-	.
.	16ffJJ	.
8r	16a-LL	.
.	16gg-	.
(8cc	16a-	.
.	16gg-JJ	.
=217	=217	=217
8dd-'L)	16a-LL	.
.	16gg-	.
8d-'J	16a-	.
.	16ffJJ	.
8r	16a-LL	.
.	16gg-	.
(8cc	16a-	.
.	16gg-JJ	.
=218	=218	=218
8dd-'L)	16a-LL	.
.	16gg-	.
8d-'J	16a-	.
.	16ffJJ	.
8bn'L	16a-LL	.
.	16ff	.
8BnJ	16a-	.
.	16ffJJ	.
=219	=219	=219
8cc'L	16gLL	.
.	16ff	.
8c'J	16g	.
.	16eenJJ	.
8an'L	16g-LL	<
.	16ee-	.
8An'J	16g-	.
.	16ee-JJ	.
=220	=220	=220
8b-X'L	16fLL<	.
.	16ee-	.
8B-X'J	16f	.
.	16ddJJ	.
8g'L	16enLL<	.
.	16b- 16dd-	.
8G'J	16e	.
.	16b- 16dd-JJ	.
!!LO:LB:g=original
=221	=221	=221
*clefF4	*	*
8en'L	16gLL<	.
.	16b- 16dd-	.
8En'J	16g	.
.	16b- 16ccJJ	.
8f'L	16a-LL	.
.	16cc	.
8F'J	16a-	.
.	16cc-JJ	.
=222	=222	=222
8d'L	16fLL	sf
.	16a- 16cc-	.
8D'J	16f	.
.	16a- 16b-JJ	.
8e-X'L	16gLL	.
.	16b-	.
8E-X'J	16e- 16g	.
.	16b-JJ	.
=223	=223	=223
8A-'L>	16c 16fLL	.
.	16b-	.
8AA-'J	16c 16f	.
.	16a-JJ	.
8BBB-'L	16A- 16dLL	.
.	16f	.
8BB-'J	16A- 16d	.
.	16fJJ	.
=224	=224	=224
16EE-LL	8G 8e-	.
16E-	.	.
16G	(8e-L	.
16E-JJ	.	.
16GLL	8g	.
16E-	.	.
16G	8b-J	.
16E-JJ	.	.
=225	=225	=225
16GLL	8ee-L	sf
16E-	.	.
16G	8b-	.
16E-JJ	.	.
16GLL	8g	.
16E-	.	.
16G	8e-J)	.
16E-JJ	.	.
!!LO:LB:g=original
=226	=226	=226
16EE-LL	8r	.
16E-	.	.
16G 16B-	(8gL	.
16E-JJ	.	.
16G 16B-LL	8b-	.
16E-	.	.
16G 16B-	8ee-J	.
16E-JJ	.	.
=227	=227	=227
16G 16B-LL	8ggL	sf
16E-	.	.
16G 16B-	8ee-	.
16E-JJ	.	.
16G 16B-LL	8b-	.
16E-	.	.
16G 16B-	8gJ)	.
16E-JJ	.	.
=228	=228	=228
16EE-LL<	8r	.
16E-	.	.
16G	8B-' 8b-'L	.
16E-JJ	.	.
16G 16B-LL	8e-' 8ee-'	.
16E-	.	.
16G 16B-	8g' 8gg'J	.
16E-JJ	.	.
=229	=229	=229
16G 16B-LL	8b- (8bb-L	sf
16E-	.	.
16G 16B-	8g 8gg)	.
16E-JJ	.	.
16G 16B-LL	8e-' 8ee-'	.
16E-	.	.
16G	8B-' 8b-'J	.
16E-JJ	.	.
=230	=230	=230
16A-LL	8c' 8cc'L	.
16E-	.	.
16F	8d' 8dd'	.
16E-JJ	.	.
16GLL	8e-' 8ee-'	.
16E-	.	.
16G	8B-' 8b-'J	.
16E-JJ	.	.
!!LO:LB:g=original
=231	=231	=231
16A-LL	8c' 8cc'L	.
16E-	.	.
16F	8d' 8dd'	.
16E-JJ	.	.
16GLL	8e-' 8ee-'J	.
16E-	.	.
16G	8r	.
16E-JJ	.	.
=232	=232	=232
16EE-LL<	8r	.
16E-	.	.
16G	8B-' 8b-'L	.
16E-JJ	.	.
16G 16B-LL	8e-' 8ee-'	.
16E-	.	.
16G 16B-	8g' 8gg'J	.
16E-JJ	.	.
=233	=233	=233
16G 16B-LL	8b- (8bb-L	sf
16E-	.	.
16G 16B-	8g 8gg)	.
16E-JJ	.	.
16G 16B-LL	8e-' 8ee-'	.
16E-	.	.
16G	8B-' 8b-'J	.
16E-JJ	.	.
=234	=234	=234
16A-LL	8c' 8cc'L	.
16E-	.	.
16F	8d' 8dd'	.
16E-JJ	.	.
16GLL	8e-' 8ee-'	.
16E-	.	.
16G	8B-' 8b-'J	.
16E-JJ	.	.
=235	=235	=235
16A-LL	8c' 8cc'L	.
16E-	.	.
16F	8d' 8dd'	.
16E-JJ	.	.
16GLL	8e-' 8ee-'	.
16E-	.	.
16G	8B-' 8b-'J	.
16E-JJ	.	.
!!LO:LB:g=original
=236	=236	=236
16A-LL	8c' 8cc'L	.
16E-	.	.
16F	8d' 8dd'	.
16E-JJ	.	.
16GLL	8e-' 8ee-'	.
16E-	.	.
16B-	8g' 8gg'J	.
16E-JJ	.	.
=237	=237	=237
16GLL	8e-' 8ee-'L	.
16E-	.	.
16B-	8g' 8gg'	.
16E-JJ	.	.
16GLL	8e-' 8ee-'	.
16E-	.	.
16G	8B-' 8b-'J	.
16E-JJ	.	.
=238	=238	=238
16A-LL	8c' 8cc'L	.
16E-	.	.
16F	8d' 8dd'	.
16E-JJ	.	.
16GLL	8e-' 8ee-'	.
16E-	.	.
16B-	8g' 8gg'J	.
16E-JJ	.	.
=239	=239	=239
16GLL	8e-' 8ee-'L	.
16E-	.	.
16B-	8g' 8gg'	.
16E-JJ	.	.
16GLL	8e-' 8ee-'	.
16E-	.	.
16B-	8g' 8gg'J	.
16E-JJ	.	.
=240	=240	=240
16GLL	8e-' 8ee-'L	.
16E-	.	.
16d-	8b-' 8bb-'	.
16E-JJ	.	.
16B-LL	8g' 8gg'	.
16E-	.	.
16d-	8b-' 8bb-'J	.
16E-JJ	.	.
!!LO:LB:g=original
=241	=241	=241
16B-LL	8g' 8gg'L	.
16E-	.	.
16d-	8b-' 8bb-'	.
16E-JJ	.	.
16B-LL	8g' 8gg'	.
16E-	.	.
16d-	8b-' 8bb-'J	.
16E-JJ	.	.
=242	=242	=242
16B-LL	8g' 8gg'L	sf
16En	.	.
16d-	8b-' 8bb-'	.
16EJJ	.	.
16B-LL	8g' 8gg'	.
16E	.	.
16d-	8b-' 8bb-'J	.
16EJJ	.	.
=243	=243	=243
16B-LL	8f' 8ff'L	sf
16F	.	.
16d-	8b-' 8bb-'	.
16FJJ	.	.
16B-LL	8f' 8ff'	.
16F	.	.
16d-	8b-' 8bb-'J	.
16FJJ	.	.
=244	=244	=244
16B-LL	8en' 8een'L	sf
16G-	.	.
16d-	8b-' 8bb-'	.
16G-JJ	.	.
16B-LL	8e' 8ee'	.
16G-	.	.
16d-	8b-' 8bb-'J	.
16G-JJ	.	.
=245	=245	=245
16B-LL	8en' 8een'L	sf
16Gn	.	.
16d-	8b-' 8bb-'	.
16GJJ	.	.
16B-LL	8e' 8ee'	.
16G	.	.
16d-	8b-' 8bb-'J	.
16GJJ	.	.
!!LO:LB:g=original
=246	=246	=246
*^	*	*
16dnLL	4.A-z	8f' 8ff'L	.
16B-	.	.	.
16d	.	8b-' 8bb-'	.
16B-JJ	.	.	.
16dLL	.	8f' 8ff'	.
16B-	.	.	.
16en	8G	8g' 8gg'J	.
16B-JJ	.	.	.
=247	=247	=247	=247
16fLL	4.Fz	8a-' 8aa-'L	.
16B-	.	.	.
16f	.	8b-' 8bb-'	.
16B-JJ	.	.	.
16fLL	.	8a-' 8aa-'	.
16B-	.	.	.
16e-X	8G	8g' 8gg'J	.
16B-JJ	.	.	.
=248	=248	=248	=248
16dLL	4.A-z	8f' 8ff'L	.
16B-	.	.	.
16d	.	8b-' 8bb-'	.
16B-JJ	.	.	.
16dLL	.	8f' 8ff'	.
16B-	.	.	.
16en	8G	8g' 8gg'J	.
16B-JJ	.	.	.
=249	=249	=249	=249
16fLL	4.Fz	8a-' 8aa-'L	.
16B-	.	.	.
16f	.	8b-' 8bb-'	.
16B-JJ	.	.	.
16fLL	.	8a-' 8aa-'	.
16B-	.	.	.
16e-X	8G	8g' 8gg'J	.
16B-JJ	.	.	.
=250	=250	=250	=250
16dLL	4.A-z	8f 8ffL	<
16B-	.	.	.
16d	.	16b-L	.
16B-JJ	.	16bb-JJ	.
16dLL	.	16b-LL	.
16B-	.	16bb-	.
16e-	8G	16cc	.
16B-JJ	.	16bb-JJ	.
!!LO:LB:g=original
=251	=251	=251	=251
16fLL	8FL	16b- 16ddLL	.
16B-	.	16bb-	.
16e-	8E-	16cc 16ee-	.
16B-JJ	.	16bb-JJ	.
16dLL	8D	16dd 16ffLL	.
16B-	.	16bb-	.
16c	8CJ	16ee- 16gg	.
16B-JJ	.	16bb-JJ	.
*v	*v	*	*
=252	=252	=252
16BB-LL	16ff 16aa-LL	ff
16B-	16bb-	.
16AAn	16b- 16dd	.
16AnJJ	16bb-JJ	.
16AA-LL	16b- 16ddLL	.
16A-	16bb-	.
16GG	16cc 16ee-	.
16GJJ	16cccJJ	.
=253	=253	=253
16FFLL	16dd 16ffLL	.
16F	16ddd	.
16EE-	16ee- 16gg	.
16E-JJ	16eee-JJ	.
16DDLL	16ff 16aa-LL	.
16D	16fff	.
16CC	16ff 16aa-	.
16CJJ	16fffJJ	.
=254	=254	=254
[2BBB- [2BB-	[2ff [2aa- [2fff	sf
=255	=255	=255
2BBB-;] 2BB-;]	2ff;] 2aa-;] 2fff;]	.
!!LO:LB:g=original
=256||	=256||	=256||
!!!OMD: Adagio
*M3/4	*M3/4	*
*MM60	*MM60	*
*	*^	*
8EE- 8E-L	2B- 2e- 2g	2ryy	p
8EE- 8E-	.	.	.
8EE- 8E-	.	.	.
8EE- 8E-	.	.	.
8EE- 8E-	(16gLL	4A- 4d	.
.	16f	.	.
8EE- 8E-J	16e-	.	.
.	32gL	.	.
.	32fJJJ)	.	.
*	*v	*v	*
=257	=257	=257
8EE- 8E-L	4.G 4.B- 4.e-	<
8EE- 8E-	.	.
8EE- 8E-	.	.
8EE- 8E-	(8G 8B- 8e-L	.
8EE- 8E-	8A- 8d 8f	.
8EE- 8E-J	8B-) 8d- 8gJ	.
=258	=258	=258
*^	*^	*
4ryy	8EE- 8E-L	4c 4e- 4a-	4ryy	.
.	8EE- 8E-J	.	.	.
(16cLL	8E-L	(16a-LL	8e-L	.
16Bn	.	16g	.	.
16c	8E-	16a-	8e-J	.
16GJJ	.	16b-JJ	.	.
16A-LL	8E-	16ccLL	8e-L	.
16B-	.	16ddn	.	.
32dL	8E-J	32ffL	8e-J	.
32c	.	32ee-	.	.
32B-	.	32dd	.	.
32A-JJJ)	.	32ccJJJ)	.	.
=259	=259	=259	=259	=259
(4F#	8E-L	(8.anL	4e-	.
.	8E-J	.	.	.
.	.	32ccLL	.	.
.	.	32b-JJJ)	.	.
8G)	8E-	8e- 8b-	4ryy	<
8B-L	(8GL	(8e- 8b-L	.	.
8B-	8Fn 8A-	8d 8f 8b-	4ryy	.
8B-J	8E-) 8GJ	8e-) 8g 8b-J	.	.
*v	*v	*	*	*
*	*v	*v	*
=260	=260	=260
8D 8F 8B-L	4.a- 4.aa-	fp
8D 8F 8B-	.	.
8D 8F 8B-	.	.
8D 8F 8B-	8a- 8aa-	.
8E- 8G 8B-	16a- (16aa-LL	.
.	16g 16gg	.
8E- 8G 8B-J	16f 16ff	.
.	16e- 16ee-JJ)	.
!!LO:LB:g=original
=261	=261	=261
8F 8A- 8B-L	8e-\ (8ee-\	.
8F 8A- 8B-	4d\ 4dd\)	.
8F 8A- 8B-	.	<
8F 8A- 8B-J	8d\ 8dd\	.
8G 8B-L	16e- 16ee-LL	.
.	16e-T (16ee-	.
8d 8e-XJ	16f 16ff	.
.	16g 16ggJJ)	.
*clefG2	*	*
=262	=262	=262
8c 8e-L	16a- 16aa-LL	.
.	16a-T (16aa-	.
8A- 8e- 8a-	16b- 16bb-	.
.	16cc 16cccJJ)	.
8B- 8e- 8g	16cc (16cccLL	.
.	16b- 16bb-	.
8B- 8e- 8g	16an 16aan)	>
.	[16b- [16bb-JJ	.
8B- 8d 8a-X	16b-] 16bb-LL]	.
.	16b- (16bb-	.
8B- 8d 8a-J	16a 16aa	.
.	16b- 16bb-JJ)	.
=263	=263	=263
8e- 8g	16b- (16bb-LL	p
.	16ee-JJ)	.
8r	8r	.
4r	8r	.
.	[8ccc	sfp
4B- 4d 4a-	64cccLLLL]	.
.	64bb-	<
.	64aan	.
.	64bb-	.
.	64aa	.
.	64bb-	.
.	64aa	.
.	64bb-JJJJ	.
.	(16.bb-TLL	.
.	64aaLL	.
.	64bb-JJJJ)	.
!!LO:LB:g=original
=264	=264	=264
4e- 4g	4ee-	p
4r	8r	.
.	[8ccz	.
*clefF4	*	*
8BB- 8D 8A-L	16ccLK]	.
.	8ccz	.
8BB- 8D 8A-J	.	.
.	[16cczJk	.
=265	=265	=265
4BB-; 4D; 4A-;	4cc;]	p
*	*cue	*
*	*Xtuplet	*
4ryy	24bnL	.
.	24cc	.
.	24dd	.
.	24cc	.
.	24b-	.
.	24a-J	.
4r	28gL	.
.	28b-	.
.	28a-	.
.	28g	.
.	28f	.
.	28en	.
.	28g	.
4ryy	28f	.
.	28a-	.
.	28g	.
.	28f	.
.	28e-	.
.	28d	.
.	28fJ	.
*	*rscale:2	*
4r	36e-L	.
.	36d	.
.	36c	.
.	36B-<	.
.	36An<	.
.	36c<	.
.	36B-<	.
.	36A-<	.
.	36G<J	.
*	*rscale:1	*
4ryy	(4B-<'/	.
4ryy	4A-<'/	.
4ryy	4F<'/)	.
*	*Xcue	*
*	*tuplet	*
=266||	=266||	=266||
!!!OMD: Presto
*M2/4	*M2/4	*
*MM208	*MM208	*
*^	*	*
=	=	=	=
(4E-	8rEE	2ryy	p
.	8EE-'	.	.
4C	8rEE	.	.
.	8AA-'	.	.
=267	=267	=267	=267
4F	8rGG	2ryy	.
.	8FF'	.	.
4D)	8rGG	.	.
.	8BB-'	.	.
!!LO:LB:g=original
=268	=268	=268	=268
4G	8rGG	2ryy	.
.	(8GGL	.	.
[4E-z	8C)	.	.
.	8BB-J	.	.
=269	=269	=269	=269
(8E-L]	(8AA-L	2ryy	.
8F 8A-)	8FF)	.	.
8D' 8F'	8BB-'	.	.
8D' 8F'J	8BBB-'J	.	.
*v	*v	*	*
=270	=270	=270
8r	(4e- 4g	.
8E-'	.	.
8r	4c 4e-	.
8A-'	.	.
=271	=271	=271
8r	4f 4a-	.
8F'	.	.
8r	4d 4f	.
8B-'	.	.
=272	=272	=272
8r	4g) 4b-	.
(8GL	.	.
8c	[4en [4g	sf
8B-J)	.	.
=273	=273	=273
(8A-L	(8e] 8gL]	.
8F)	8f) 8a-	.
8B-'	8d' 8f'	.
8BB-'J	8d' 8f'J	.
=274	=274	=274
8r	(4g/ 4b-/ 4gg/	<
(8GL	.	.
8c	[4en) 4g [4een	sf
8B-J)	.	.
!!LO:LB:g=original
=275	=275	=275
(8A-L	(8e] 8g 8eeL]	.
8F)	8f) 8a- 8ff	.
8B-'	8d' 8f' 8dd'	.
8BB-'J	8d' 8f' 8dd'J	.
=276	=276	=276
8r	4b- 4gg 4bb-	.
(8GL	.	.
8c	[4g [4een [4gg	sf
8B-J)	.	.
=277	=277	=277
(8A-L	8g] 8ee] (8ggL]	.
8F)	8a- 8ff 8aa-)	.
8B-'	8f' 8dd' 8ff'	.
8BB-'J	8f' 8dd' 8ff'J	.
=278	=278	=278
8EE-' 8E-'L>	8e-X\ 8ee-X\	.
8En'	16ggLL	f
.	16bb-JJ	.
8F'	16aa-LL	.
.	16bb-	.
8D'J	16ff	.
.	16bb-JJ	.
=279	=279	=279
8E-X'L	16ggLL	.
.	16bb-	.
8GG'	16ee-	.
.	16bb-JJ	.
8AA-'	16ffLL	.
.	16bb-	.
8BB-'J	16dd	.
.	16bb-JJ	.
!!LO:LB:g=original
=280	=280	=280
8EE-' 8E-'L>	16ee-LL	.
.	16bb-	.
8En'	16gg	.
.	16bb-JJ	.
8F'	16aa-LL	.
.	16bb-	.
8D'J	16ff	.
.	16bb-JJ	.
=281	=281	=281
8E-X'L	16ggLL	.
.	16bb-	.
8GG'	16ee-	.
.	16bb-JJ	.
8AA-'	16ffLL	.
.	16bb-	.
8BB-'J	16dd	.
.	16bb-JJ	.
=282	=282	=282
8EE-L	16ee-LL	.
.	16bb-	.
8BBB-	16gg	.
.	16bb-JJ	.
8EE-	16ee-LL	.
.	16bb-	.
8BBB-J	16gg	.
.	16bb-JJ	.
=283	=283	=283
8EE-L	16ee-LL	.
.	16bb-	.
8BBB-	16gg	.
.	16bb-JJ	.
8EE-	16ee-LL	.
.	16bb-	.
8BBB-J	16gg	.
.	16bb-JJ	.
=284	=284	=284
4EE-	4ee-	.
4EE- 4GG 4BB- 4E-	4g 4b- 4ee- 4gg	ff
=285	=285	=285
4EE- 4GG 4BB- 4E-	4G 4B- 4e-	.
4r	4r	.
==	==	==
*-	*-	*-
!!!RDF**kern: > = above
!!!RDF**kern: < = below
!!!verovio: beamFrenchStyle
!!!LOR: Durand 1915, plates 9327/9328, Paul Dukas, ed.
!!!PED: Dukas, Paul
!!!URL-vhv: https://verovio.humdrum.org/?file=beethoven/sonatas/sonata13-4.krn
!!!URL-pdf: https://github.com/craigsapp/beethoven-piano-sonatas/blob/master/reference-edition/sonata13-4.pdf
!!!ENC: Craig Stuart Sapp
!!!END: 2005/08/27
!!!EED: Craig Stuart Sapp
!!!EEV: 2023/04/15
